svgs/sharp-light/tarp.svg

<svg xmlns="http://www.w3.org/2000/svg" viewBox="0 0 576 512"><!--! Font Awesome Pro 6.6.0 by @fontawesome - https://fontawesome.com License - https://fontawesome.com/license (Commercial License) Copyright 2024 Fonticons, Inc. --><path d="M32 416L32 96l512 0 0 160-144 0-16 0 0 16 0 144L32 416zm386.7 0l-2.7 0 0-128 128 0 0 2.7L418.7 416zM576 304l0-208 0-32-32 0L32 64 0 64 0 96 0 416l0 32 32 0 400 0L576 304zM96 184a24 24 0 1 0 0-48 24 24 0 1 0 0 48z"/></svg>

<svg xmlns="http://www.w3.org/2000/svg" viewBox="0 0 576 512"><!--! Font Awesome Pro 6.5.2 by @fontawesome - https://fontawesome.com License - https://fontawesome.com/license (Commercial License) Copyright 2024 Fonticons, Inc. --><path d="M32 416L32 96l512 0V256l-144 0H384v16l0 144L32 416zm386.7 0H416l0-128H544v2.7L418.7 416zM576 304V96 64H544 32 0V96 416v32H32l400 0L576 304zM96 184a24 24 0 1 0 0-48 24 24 0 1 0 0 48z"/></svg>
